svg/SJJB-OpenStreetMapIcons/sport/windsurfing.svg

<?xml version="1.0" encoding="UTF-8" standalone="no"?>
<!-- Created with Inkscape (http://www.inkscape.org/) -->

<svg
   xmlns:dc="http://purl.org/dc/elements/1.1/"
   xmlns:cc="http://creativecommons.org/ns#"
   xmlns:rdf="http://www.w3.org/1999/02/22-rdf-syntax-ns#"
   xmlns:svg="http://www.w3.org/2000/svg"
   xmlns="http://www.w3.org/2000/svg"
   xmlns:sodipodi="http://sodipodi.sourceforge.net/DTD/sodipodi-0.dtd"
   xmlns:inkscape="http://www.inkscape.org/namespaces/inkscape"
   version="1.0"
   width="580"
   height="580"
   id="svg2"
   sodipodi:version="0.32"
   inkscape:version="0.47 r22583"
   sodipodi:docname="shopping_alcohol.svg"
   inkscape:output_extension="org.inkscape.output.svg.inkscape">
  <metadata
     id="metadata2975">
    <rdf:RDF>
      <cc:Work
         rdf:about="">
        <dc:format>image/svg+xml</dc:format>
        <dc:type
           rdf:resource="http://purl.org/dc/dcmitype/StillImage" />
        <cc:license
           rdf:resource="http://web.resource.org/cc/PublicDomain" />
        <dc:language>en</dc:language>
        <dc:title></dc:title>
      </cc:Work>
    </rdf:RDF>
  </metadata>
  <sodipodi:namedview
     inkscape:window-height="941"
     inkscape:window-width="1280"
     inkscape:pageshadow="2"
     inkscape:pageopacity="0.0"
     guidetolerance="10.0"
     gridtolerance="10.0"
     objecttolerance="10.0"
     borderopacity="1.0"
     bordercolor="#666666"
     pagecolor="#ffffff"
     id="base"
     inkscape:zoom="0.65172414"
     inkscape:cx="294.77108"
     inkscape:cy="451.23755"
     inkscape:window-x="1276"
     inkscape:window-y="-4"
     inkscape:current-layer="svg2"
     showgrid="false"
     inkscape:window-maximized="1" />
  <defs
     id="defs4">
    <inkscape:perspective
       sodipodi:type="inkscape:persp3d"
       inkscape:vp_x="0 : 290 : 1"
       inkscape:vp_y="6.1230318e-14 : 1000 : 0"
       inkscape:vp_z="580 : 290 : 1"
       inkscape:persp3d-origin="290 : 193.33333 : 1"
       id="perspective2441" />
    <inkscape:perspective
       id="perspective3452"
       inkscape:persp3d-origin="30 : 20 : 1"
       inkscape:vp_z="60 : 30 : 1"
       inkscape:vp_y="0 : 1000 : 0"
       inkscape:vp_x="0 : 30 : 1"
       sodipodi:type="inkscape:persp3d" />
    <symbol
       viewBox="244.5 110 489 219.9"
       id="symbol-university">
      <path
         id="path4460"
         d="M79,43l57,119c0,0,21-96,104-96s124,106,124,106l43-133l82-17L0,17L79,43z" />
      <path
         id="path4462"
         d="M94,176l-21,39"
         stroke-width="20"
         stroke="#000000"
         fill="none" />
      <path
         id="path4464"
         d="M300,19c0,10.5-22.6,19-50.5,19S199,29.5,199,19s22.6-19,50.5-19S300,8.5,300,19z" />
      <path
         id="path4466"
         d="M112,216l-16-38L64,88c0,0-9-8-4-35s16-24,16-24"
         stroke-width="20"
         stroke="#000000"
         ill="none" />
    </symbol>
    <inkscape:perspective
       id="perspective4471"
       inkscape:persp3d-origin="372.04724 : 350.78739 : 1"
       inkscape:vp_z="744.09448 : 526.18109 : 1"
       inkscape:vp_y="0 : 1000 : 0"
       inkscape:vp_x="0 : 526.18109 : 1"
       sodipodi:type="inkscape:persp3d" />
    <inkscape:perspective
       id="perspective4668"
       inkscape:persp3d-origin="6 : 4 : 1"
       inkscape:vp_z="12 : 6 : 1"
       inkscape:vp_y="0 : 1000 : 0"
       inkscape:vp_x="0 : 6 : 1"
       sodipodi:type="inkscape:persp3d" />
    <inkscape:perspective
       id="perspective3826"
       inkscape:persp3d-origin="0.5 : 0.33333333 : 1"
       inkscape:vp_z="1 : 0.5 : 1"
       inkscape:vp_y="0 : 1000 : 0"
       inkscape:vp_x="0 : 0.5 : 1"
       sodipodi:type="inkscape:persp3d" />
    <inkscape:perspective
       id="perspective3855"
       inkscape:persp3d-origin="0.5 : 0.33333333 : 1"
       inkscape:vp_z="1 : 0.5 : 1"
       inkscape:vp_y="0 : 1000 : 0"
       inkscape:vp_x="0 : 0.5 : 1"
       sodipodi:type="inkscape:persp3d" />
    <inkscape:perspective
       id="perspective3909"
       inkscape:persp3d-origin="0.5 : 0.33333333 : 1"
       inkscape:vp_z="1 : 0.5 : 1"
       inkscape:vp_y="0 : 1000 : 0"
       inkscape:vp_x="0 : 0.5 : 1"
       sodipodi:type="inkscape:persp3d" />
    <inkscape:perspective
       id="perspective11014"
       inkscape:persp3d-origin="0.5 : 0.33333333 : 1"
       inkscape:vp_z="1 : 0.5 : 1"
       inkscape:vp_y="0 : 1000 : 0"
       inkscape:vp_x="0 : 0.5 : 1"
       sodipodi:type="inkscape:persp3d" />
  </defs>
  <g
     id="g1327">
    <path
       d="M 66.275,1.768 C 24.94,1.768 1.704,23.139 1.704,66.804 L 1.704,516.927 C 1.704,557.771 22.599,579.156 63.896,579.156 L 515.92,579.156 C 557.227,579.156 578.149,558.841 578.149,516.927 L 578.149,66.804 C 578.149,24.203 557.227,1.768 514.628,1.768 C 514.624,1.768 66.133,1.625 66.275,1.768 z "
       style="fill:#111;stroke:#eee;stroke-width:3.40799999"
       id="path1329" />
  </g>
  <g
     id="layer3"
     inkscape:label="Layout"
     style="display:none;stroke:#757575;stroke-opacity:1"
     transform="matrix(48.14969,0,0,48.14969,-536.27327,-33.306752)">
    <rect
       style="fill:none;stroke:#757575;stroke-width:0.10000000000000001;stroke-miterlimit:4;stroke-dasharray:none;stroke-opacity:1;display:inline"
       id="rect4134"
       width="10"
       height="10"
       x="1"
       y="1" />
    <rect
       style="fill:none;stroke:#757575;stroke-width:0.10000000000000001;stroke-miterlimit:4;stroke-dasharray:none;stroke-opacity:1;display:inline"
       id="rect4136"
       width="8"
       height="8"
       x="2"
       y="2" />
  </g>
  <g
     id="g3338"
     transform="matrix(1.3973279,-0.2437849,0.2437849,1.3973279,-185.07402,-56.183307)" />
  <g
     id="g11052"
     transform="matrix(1.8310818,0,0,1.8310818,-1168.1361,59.829233)">
    <path
       style="fill:#ffffff"
       d="M 932.34765,264.02941 C 926.65507,264.02941 921.16224,262.73111 916.26862,260.53397 C 911.27513,258.20368 905.61585,256.83879 899.72354,256.83879 C 893.83122,256.83879 888.17194,258.20368 883.17845,260.53397 C 878.28484,262.73111 872.792,264.02941 867.09943,264.02941 C 861.40685,264.02941 855.88073,262.73111 851.0204,260.53397 C 846.02692,258.20368 840.36763,256.83879 834.44203,256.83879 C 828.58301,256.83879 822.92372,258.20368 817.89695,260.53397 C 813.03662,262.73111 807.51049,264.02941 801.81792,264.02941 C 796.12535,264.02941 790.63251,262.73111 785.77219,260.53397 C 780.74541,258.20368 775.11942,256.83879 769.19381,256.83879 C 763.3015,256.83879 757.6755,258.20368 752.64873,260.53397 C 747.75511,262.73111 742.26228,264.02941 736.5697,264.02941 C 730.87713,264.02941 725.38429,262.73111 720.49068,260.53397 C 715.49719,258.20368 709.83791,256.83879 703.94559,256.83879 C 698.01999,256.83879 692.394,258.20368 687.40051,260.53397 C 682.50689,262.73111 677.01406,264.02941 671.32149,264.02941 V 239.89423 C 677.04735,239.89423 682.50689,238.59592 687.40051,236.39879 C 692.394,234.13508 698.01999,232.77019 703.94559,232.77019 C 709.83791,232.77019 715.49719,234.13508 720.49068,236.39879 C 725.38429,238.59592 730.87713,239.89423 736.5697,239.89423 C 742.26228,239.89423 747.75511,238.59592 752.64873,236.39879 C 757.6755,234.13508 763.3015,232.77019 769.19381,232.77019 C 775.11942,232.77019 780.74541,234.13508 785.77219,236.39879 C 790.63251,238.59592 796.15864,239.89423 801.81792,239.89423 C 807.54378,239.89423 813.03662,238.59592 817.89695,236.39879 C 822.92372,234.13508 828.58301,232.77019 834.44203,232.77019 C 840.36763,232.77019 846.02692,234.13508 851.0204,236.39879 C 855.88073,238.59592 861.40685,239.89423 867.09943,239.89423 C 872.792,239.89423 878.28484,238.59592 883.17845,236.39879 C 888.17194,234.13508 893.83122,232.77019 899.72354,232.77019 C 905.61585,232.77019 911.27513,234.13508 916.26862,236.39879 C 921.16224,238.59592 926.68836,239.89423 932.34765,239.89423 V 264.02941 z"
       id="path5665" />
    <path
       style="fill:#ffffff"
       d="M 768.76104,196.21787 H 723.52006 C 716.86208,196.21787 711.06963,192.25637 708.47302,186.53051 L 691.7282,148.38028 C 691.3953,147.08197 691.22885,145.78366 691.22885,144.41878 C 691.22885,135.26405 698.6525,127.8404 707.77393,127.8404 L 744.52599,127.77382 L 769.75974,116.3221 C 770.15922,116.05578 771.19121,115.78946 772.28977,115.78946 C 776.61746,115.78946 780.14619,119.35148 780.14619,123.64588 C 780.14619,126.30907 778.78131,128.70594 776.75062,130.13741 L 749.31974,142.48796 C 747.48879,143.91943 744.05993,144.11917 744.05993,144.11917 H 727.54814 L 741.39674,174.87904 H 771.99016 L 771.99016,174.87904 C 775.01955,174.87904 777.11681,175.91103 778.98104,177.54224 L 808.94196,206.00511 L 808.94196,206.00511 C 813.13649,209.90002 813.36952,216.45814 809.4746,220.68595 C 805.54639,224.84719 798.98828,225.11351 794.79375,221.21859 L 794.79375,221.21859 L 768.76104,196.21787 z"
       id="path5667" />
    <path
       style="fill:#ffffff"
       d="M 909.77709,144.51865 C 910.37631,145.48405 911.77448,145.88353 913.07279,145.88353 C 915.60282,145.88353 917.70009,143.78627 917.70009,141.18966 C 917.70009,139.95793 917.10087,138.85936 916.56823,137.79409 C 888.27181,83.831147 811.90476,99.876882 802.5503,103.40561 C 800.98567,104.00483 800.08685,105.73591 800.08685,107.50027 C 800.08685,110.0303 802.18411,112.12757 804.71414,112.12757 C 805.47981,112.12757 805.87929,112.06099 806.57838,111.86125 C 881.41409,95.049846 905.7823,137.69422 909.77709,144.51865 z M 922.79344,149.37897 L 827.01838,209.76687 L 739.83211,-12.909323 C 817.86366,-2.5561617 917.06758,58.031469 922.79344,149.37897 z"
       id="path5669" />
    <circle
       transform="matrix(33.289907,0,0,33.289907,111.2188,-22801.382)"
       style="fill:#ffffff"
       sodipodi:ry="0.47499999"
       sodipodi:rx="0.47499999"
       sodipodi:cy="688.19897"
       sodipodi:cx="17.663"
       d="M 18.138,688.19897 C 18.138,688.46131 17.925335,688.67397 17.663,688.67397 C 17.400665,688.67397 17.188,688.46131 17.188,688.19897 C 17.188,687.93664 17.400665,687.72397 17.663,687.72397 C 17.925335,687.72397 18.138,687.93664 18.138,688.19897 z"
       cx="17.663"
       cy="688.19897"
       r="0.47499999"
       id="circle5671" />
  </g>
</svg>

<svg xmlns="http://www.w3.org/2000/svg" viewBox="0 0 580 580"><path d="m66.28 1.768c-41.34 0-64.57 21.371-64.57 65.04v450.12c0 40.844 20.895 62.23 62.19 62.23h452.02c41.31 0 62.23-20.315 62.23-62.23v-450.12c0-42.601-20.922-65.04-63.52-65.04-.004 0-448.5-.143-448.35 0z" fill="#111" stroke="#eee" stroke-width="3.408"/><g transform="matrix(1.83108 0 0 1.83108-1168.14 59.829)" fill="#fff"><path d="m932.35 264.03c-5.693 0-11.185-1.298-16.08-3.495-4.993-2.33-10.653-3.695-16.545-3.695-5.892 0-11.552 1.365-16.545 3.695-4.894 2.197-10.386 3.495-16.08 3.495-5.693 0-11.219-1.298-16.08-3.495-4.993-2.33-10.653-3.695-16.578-3.695-5.859 0-11.518 1.365-16.545 3.695-4.86 2.197-10.386 3.495-16.08 3.495-5.693 0-11.185-1.298-16.05-3.495-5.03-2.33-10.653-3.695-16.578-3.695-5.892 0-11.518 1.365-16.545 3.695-4.894 2.197-10.386 3.495-16.08 3.495-5.693 0-11.185-1.298-16.08-3.495-4.993-2.33-10.653-3.695-16.545-3.695-5.926 0-11.552 1.365-16.545 3.695-4.894 2.197-10.386 3.495-16.08 3.495v-24.14c5.726 0 11.185-1.298 16.08-3.495 4.993-2.264 10.619-3.629 16.545-3.629 5.892 0 11.552 1.365 16.545 3.629 4.894 2.197 10.386 3.495 16.08 3.495 5.693 0 11.185-1.298 16.08-3.495 5.03-2.264 10.653-3.629 16.545-3.629 5.926 0 11.552 1.365 16.578 3.629 4.86 2.197 10.386 3.495 16.05 3.495 5.726 0 11.219-1.298 16.08-3.495 5.03-2.264 10.686-3.629 16.545-3.629 5.926 0 11.585 1.365 16.578 3.629 4.86 2.197 10.386 3.495 16.08 3.495 5.693 0 11.185-1.298 16.08-3.495 4.993-2.264 10.653-3.629 16.545-3.629 5.892 0 11.552 1.365 16.545 3.629 4.894 2.197 10.42 3.495 16.08 3.495v24.14"/><path d="m768.76 196.22h-45.24c-6.658 0-12.45-3.962-15.05-9.687l-16.745-38.15c-.333-1.298-.499-2.597-.499-3.962 0-9.155 7.424-16.578 16.545-16.578l36.752-.067 25.23-11.452c.399-.266 1.431-.533 2.53-.533 4.328 0 7.856 3.562 7.856 7.856 0 2.663-1.365 5.06-3.396 6.492l-27.431 12.351c-1.831 1.431-5.26 1.631-5.26 1.631h-16.512l13.849 30.76h30.593c3.03 0 5.127 1.032 6.991 2.663l29.961 28.463c4.195 3.895 4.428 10.453.533 14.681-3.928 4.161-10.486 4.428-14.681.533l-26.03-25"/><path d="m909.78 144.52c.599.965 1.997 1.365 3.296 1.365 2.53 0 4.627-2.097 4.627-4.694 0-1.232-.599-2.33-1.132-3.396-28.3-53.963-104.66-37.917-114.02-34.388-1.565.599-2.463 2.33-2.463 4.095 0 2.53 2.097 4.627 4.627 4.627.766 0 1.165-.067 1.864-.266 74.836-16.811 99.2 25.833 103.2 32.657m13.02 4.86l-95.78 60.39-87.19-222.68c78.03 10.353 177.24 70.941 182.96 162.29"/><circle transform="matrix(33.2899 0 0 33.2899 111.22-22801.38)" cx="17.663" cy="688.2" r=".475"/></g></svg>
